X:58
T:Prince Leopold
O:No 58 Wm Clarke of Feltwell MS  1858
N:Signature b misplaced  in MS (on A)
I:abc2nwc
M:6/8
L:1/8
K:F
"^*"A/2B/2|cdc cfg|afd dcB|ABc cBA|Ggg g2A/2B/2|
cdc cfg|aff gee|fed cAG|Fff f2:|
|:c/2B/2|Aff fga|Aff fga|c'd'c' c'af|egg g2c/2B/2|
Af_e dgf|e_ba g2b|c'ba agf|fed cAc|
cdc cfg|afd dcB|ABc cBA|Ggg g2A/2B/2|
cdc cfg|aff gee|fed cAG|Fff f2:|

